!!!SOCIAL_FUNCTION: stomp dance songs
!!!PDT:	1943
!!!LING_GROUP: Muskogean
!!!LANG: Non-Tone
Specific Region: Oklahoma, California, Mississippi, Louisiana, Texas, Alabama
!!!REG: Southeast
!!!COM: Anon.
!!!OTL: Stomp Dance Song (d)
!!!ODT: <1933//
!!!MPN: Lapintabeseihoke [Kills it Himself, Sidney Wesley]
!!!MLC: Philadelphia, Mississippi, United States of America
!! Song was recorded in January 1933.
!!!AGN: monody
!!!AMT: irregular
!!!RWG: Transcribed pitches, durations, and meters are only approximate.
**kern
*ICvox
*Imale
*clefF4
*k[b-e-a-]
*M3/4
*MM76
=1-
8e-
8c
16B-
8B-
16G
8G
16B-
16r
*M5/8
=2
8B-
16B-
16F
8B-
8B-
16.c
32B-
*M2/4
=3
8.B-
16G
8G
16B-
16r
*M5/8
=4
8B-
16B-
16F
8B-
8B-
16.c
32d
*M2/4
=5
8.c
16b-
8G
16B-
16r
=6
8B-
16B-
16F
8B-
8r;
*M3/8
=7
8B-
16B-
16B-
16.c
32d
*M2/4
=8
8.c
16B-
8G
16B-
16r
=9
8B-
16B-
16F
16B-
16r
16B-
16B-
=10
16.c
32d
16.c
32B-
8G
16d
16r
=11
8B-
16B-
16F
16B-
16r
16B-
16B-
=12
16.c
32d
16.c
16B-
8G
16B-
16r
=13
8B-
16B-
16F
16B-
16r
16B-
16B-
=14
16.c
32d
16.c
32B-
8G
16B-
16r
*M5/8
=15
8B-
16B-
16F
16B-
16r
8e-
16.c
32c
*M2/4
=16
8.B-
16G
8G
16B-
16r
*M5/8
=17
8B-
16B-
16F
16B-
16r
8B-
16.c
32B-
*M2/4
=18
8.B-
16G
8G
16B-
16r
*M5/8
=19
8B-
16B-
16F
16B-
16r
8e-
16.c
32e-
*M2/4
=20
8.c
16B-
8G
16B-
16r
*M5/8
=21
8B-
16B-
16F
16B-
16r
8B-
16.c
32B-
*M2/4
=22
8.B-
16G
8G
16B-
16r
*M3/8
=23
8B-
16B-
16F
16B-
32r
32B-
=24
4B-
16B-
16r
==
*-
!!!CNT: Choctaw
!!!TXO: Choctaw
!!!OCY: United States
!!!OCL: Frances Densmore
!!!YOR: Frances Densmore, "Choctaw Music"
!!!YOR: Bulletin 136, page 164, No. 47
!!!PPR: Smithsonian Institution, Bureau of American Ethnology
!!!PPR: Government Printing Office
!!!PDT: 1943
!!!PPP: Washington, DC, United States of America
!!!YEC: Electronic Copyright 2000 David Huron
!!!YER: August 2000
!!!YEN: United States of America
!!!ENC: David Huron
!!!RDT: August 28, 2000
!!!EEV: Release 1.0
!!!AIN: vox
